packages/dnb-ui-lib/assets/icons/transfer_to_medium.svg

<svg width="24" height="24" viewBox="0 0 24 24" fill="none" xmlns="http://www.w3.org/2000/svg">
<path fill-rule="evenodd" clip-rule="evenodd" d="M17.5076 2.27194C17.5727 2.24262 17.6448 2.24355 17.7068 2.26954C17.7683 2.29534 17.7981 2.33542 17.8093 2.37061L18.6115 4.90014H11.6728L17.5076 2.27194ZM19.2391 1.91715L20.1852 4.90014H20.5907C22.0195 4.90014 23.2498 6.00571 23.2498 7.45601V20.6941C23.2498 22.1444 22.0195 23.25 20.5907 23.25H5.31803C3.88928 23.25 2.65894 22.1444 2.65894 20.6941V20.2427C2.65894 19.8284 2.99472 19.4927 3.40894 19.4927C3.82315 19.4927 4.15894 19.8284 4.15894 20.2427V20.6941C4.15894 21.2385 4.63805 21.75 5.31803 21.75H20.5907C21.2707 21.75 21.7498 21.2385 21.7498 20.6941V7.45601C21.7498 6.9116 21.2707 6.40014 20.5907 6.40014H19.6362H8.18167H5.31803C4.63805 6.40014 4.15894 6.91161 4.15894 7.45601V7.90746C4.15894 8.32168 3.82315 8.65746 3.40894 8.65746C2.99472 8.65746 2.65894 8.32168 2.65894 7.90746V7.45601C2.65894 6.00571 3.88928 4.90014 5.31803 4.90014H8.02055L16.8915 0.904287C17.797 0.496397 18.925 0.926722 19.2391 1.91715ZM5.60531 10.5697C5.31242 10.2768 4.83754 10.2768 4.54465 10.5697C4.25176 10.8626 4.25176 11.3375 4.54466 11.6303L6.16431 13.25H0.75C0.335786 13.25 0 13.5858 0 14C0 14.4142 0.335786 14.75 0.75 14.75H6.16431L4.54465 16.3696C4.25176 16.6625 4.25176 17.1374 4.54465 17.4303C4.83754 17.7232 5.31242 17.7232 5.60531 17.4303L8.5053 14.5303C8.64596 14.3897 8.72498 14.1989 8.72498 14C8.72498 13.8011 8.64596 13.6103 8.5053 13.4697L5.60531 10.5697Z" fill="black"/>
</svg>

<svg width="24" height="24" viewBox="0 0 24 24" fill="none" xmlns="http://www.w3.org/2000/svg"><path fill-rule="evenodd" clip-rule="evenodd" d="M17.508 2.272a.25.25 0 01.199-.002c.061.025.091.065.102.1l.802 2.53h-6.938l5.835-2.628zm1.731-.355l.946 2.983h.406c1.428 0 2.659 1.106 2.659 2.556v13.238c0 1.45-1.23 2.556-2.66 2.556H5.319c-1.429 0-2.66-1.106-2.66-2.556v-.451a.75.75 0 111.5 0v.451c0 .544.48 1.056 1.16 1.056h15.273c.68 0 1.159-.512 1.159-1.056V7.456c0-.544-.48-1.056-1.16-1.056H5.319c-.68 0-1.16.512-1.16 1.056v.451a.75.75 0 11-1.5 0v-.451c0-1.45 1.231-2.556 2.66-2.556h2.703L16.89.904c.906-.408 2.034.023 2.348 1.013zM5.605 10.57a.75.75 0 00-1.06 1.06l1.62 1.62H.75a.75.75 0 000 1.5h5.414l-1.62 1.62a.75.75 0 001.061 1.06l2.9-2.9a.75.75 0 000-1.06l-2.9-2.9z" fill="#000"/></svg>
